X:57
T:Polska efter Byss-Kalle
O:Uppland
R:Slängpolska
M:3/4
L:1/16
S:From the playing of Elin Skoglund on www.youtube.com/watch?v=WCTBNqQuksU
Z:Stephan "Stoney" Steiner
Z:adapted from the transcription of Nils L on www.folkwiki.se/Musik/196
K:G
"G"d2>B2 G2G2 (BG)(Bd) | "D7"A2(AB) "G"G2G2 (BG)Bd | "C"(cB)ce "G"~d2Bd "D7"(~cB)AG | (FG)AB (AG)FE D2GB |
"G"d2>B2 G2G2 (BG)(Bd) | "D7"A2(AB) "G"G2G2 (BG)Bd | "C"(cB)ce "G"~d2Bd "D7"(~cB)AG | (FG)AB A2BA "G"G4 :|
|: "G"d2d2 d2ef "C"g2g2 | g2fe "G"d2ef g2B2 | "C"(cB)ce "G"~d2Bd "D7"(~cB)AG | (FG)AB (AG)FE D4 |
"G"d2d2 d2ef "C"g2g2 |g2fe "G"d2ef g2B2 | "C"(cB)ce "G"~d2Bd "D7"(~cB)AG | (FG)AB A2BA "G"G4 :|

